svg/fluentui-system-icons/ic_fluent_drink_beer_20_filled.svg

<svg width="20" height="20" viewBox="0 0 20 20" fill="none" xmlns="http://www.w3.org/2000/svg">
<path d="M6.5 2C5.11929 2 4 3.11929 4 4.5V16.25C4 17.2165 4.7835 18 5.75 18H13.25C14.2165 18 15 17.2165 15 16.25V15H15.5C16.8807 15 18 13.8807 18 12.5V7.5C18 6.11929 16.8807 5 15.5 5H15V4.5C15 3.11929 13.8807 2 12.5 2H6.5ZM15 6H15.5C16.3284 6 17 6.67157 17 7.5V12.5C17 13.3284 16.3284 14 15.5 14H15V6ZM5 4.5C5 3.67157 5.67157 3 6.5 3H12.5C13.3284 3 14 3.67157 14 4.5V5H5V4.5ZM12.5 8V14C12.5 14.2761 12.2761 14.5 12 14.5C11.7239 14.5 11.5 14.2761 11.5 14V8C11.5 7.72386 11.7239 7.5 12 7.5C12.2761 7.5 12.5 7.72386 12.5 8ZM9.5 7.5C9.77614 7.5 10 7.72386 10 8V14C10 14.2761 9.77614 14.5 9.5 14.5C9.22386 14.5 9 14.2761 9 14V8C9 7.72386 9.22386 7.5 9.5 7.5ZM7.5 8V14C7.5 14.2761 7.27614 14.5 7 14.5C6.72386 14.5 6.5 14.2761 6.5 14V8C6.5 7.72386 6.72386 7.5 7 7.5C7.27614 7.5 7.5 7.72386 7.5 8Z" fill="#212121"/>
</svg>

<svg xmlns="http://www.w3.org/2000/svg" width="20" height="20"><path d="M6.5 2A2.5 2.5 0 0 0 4 4.5v11.75c0 .966.784 1.75 1.75 1.75h7.5A1.75 1.75 0 0 0 15 16.25V15h.5a2.5 2.5 0 0 0 2.5-2.5v-5A2.5 2.5 0 0 0 15.5 5H15v-.5A2.5 2.5 0 0 0 12.5 2h-6ZM15 6h.5A1.5 1.5 0 0 1 17 7.5v5a1.5 1.5 0 0 1-1.5 1.5H15V6ZM5 4.5A1.5 1.5 0 0 1 6.5 3h6A1.5 1.5 0 0 1 14 4.5V5H5v-.5ZM12.5 8v6a.5.5 0 0 1-1 0V8a.5.5 0 0 1 1 0Zm-3-.5a.5.5 0 0 1 .5.5v6a.5.5 0 0 1-1 0V8a.5.5 0 0 1 .5-.5Zm-2 .5v6a.5.5 0 0 1-1 0V8a.5.5 0 0 1 1 0Z"/></svg>
